;FLAVOR:Marlin
;TIME:25427
;Filament used: 19.7563m
;Layer height: 0.2
;MINX:3
;MINY:42
;MINZ:0.2
;MAXX:217
;MAXY:178
;MAXZ:14
;Generated with Cura_SteamEngine 4.13.1
M140 S60
M105
M190 S60
M104 S200
M105
M109 S200
M82 ;absolute extrusion mode
; Ender 3 Custom Start G-code
G92 E0 ; Reset Extruder
G28 ; Home all axes
G1 Z2.0 F3000 ; Move Z Axis up little to prevent scratching of Heat Bed
G1 X0.1 Y20 Z0.3 F5000.0 ; Move to start position
G1 X0.1 Y200.0 Z0.3 F1500.0 E15 ; Draw the first line
G1 X0.4 Y200.0 Z0.3 F5000.0 ; Move to side a little
G1 X0.4 Y20 Z0.3 F1500.0 E30 ; Draw the second line
G92 E0 ; Reset Extruder
G1 Z2.0 F3000 ; Move Z Axis up little to prevent scratching of Heat Bed
G1 X5 Y20 Z0.3 F5000.0 ; Move over to prevent blob squish
G92 E0
G92 E0
G1 F1500 E-6.5
;LAYER_COUNT:70
;LAYER:0
M107
G0 F6000 X10.991 Y42.431 Z0.2
;TYPE:SKIRT
G1 F1500 E0
G1 F1200 X11.903 Y42.213 E0.03119
G1 X12.83 Y42.072 E0.06237
G1 X13.701 Y42.013 E0.09141
G1 X14.022 Y42.004 E0.10209
G1 X14.33 Y42 E0.11234
G1 X205.293 Y42 E6.46379
G1 X206.149 Y42.011 E6.49226
G1 X207.085 Y42.065 E6.52345
G1 X208.013 Y42.197 E6.55462
G1 X208.927 Y42.409 E6.58583
G1 X209.819 Y42.698 E6.61702
G1 X210.684 Y43.061 E6.64822
G1 X211.514 Y43.497 E6.6794
G1 X212.305 Y44.002 E6.71061
G1 X213.049 Y44.573 E6.74181
G1 X213.742 Y45.205 E6.773
G1 X214.379 Y45.893 E6.80419
G1 X214.954 Y46.634 E6.83538
G1 X215.465 Y47.42 E6.86656
G1 X215.907 Y48.248 E6.89778
G1 X216.276 Y49.11 E6.92897
G1 X216.571 Y50 E6.96015
G1 X216.789 Y50.912 E6.99134
G1 X216.929 Y51.84 E7.02256
G1 X216.987 Y52.701 E7.05126
G1 X216.996 Y53.021 E7.06191
G1 X217 Y53.33 E7.07218
G1 X216.999 Y166.4 E10.83291
G1 X216.99 Y167.127 E10.85709
G1 X216.939 Y168.064 E10.8883
G1 X216.807 Y168.992 E10.91948
G1 X216.598 Y169.906 E10.95066
G1 X216.311 Y170.799 E10.98186
G1 X215.949 Y171.665 E11.01308
G1 X215.515 Y172.496 E11.04426
G1 X215.011 Y173.287 E11.07545
G1 X214.442 Y174.032 E11.10663
G1 X213.811 Y174.727 E11.13785
G1 X213.124 Y175.365 E11.16904
G1 X212.385 Y175.942 E11.20022
G1 X211.599 Y176.454 E11.23142
G1 X210.773 Y176.897 E11.2626
G1 X209.911 Y177.269 E11.29382
G1 X209.022 Y177.565 E11.32499
G1 X208.11 Y177.785 E11.35619
G1 X207.183 Y177.926 E11.38738
G1 X206.299 Y177.987 E11.41685
G1 X205.978 Y177.996 E11.42753
G1 X205.67 Y178 E11.43777
G1 X14.565 Y177.999 E17.79395
G1 X13.867 Y177.99 E17.81717
G1 X12.931 Y177.938 E17.84835
G1 X12.002 Y177.806 E17.87956
G1 X11.088 Y177.596 E17.91075
G1 X10.195 Y177.309 E17.94195
G1 X9.33 Y176.946 E17.97315
G1 X8.499 Y176.512 E18.00433
G1 X7.708 Y176.008 E18.03553
G1 X6.963 Y175.438 E18.06672
G1 X6.269 Y174.807 E18.09792
G1 X5.632 Y174.12 E18.12908
G1 X5.055 Y173.38 E18.16029
G1 X4.543 Y172.594 E18.19149
G1 X4.1 Y171.767 E18.2227
G1 X3.729 Y170.906 E18.25388
G1 X3.433 Y170.016 E18.28507
G1 X3.214 Y169.104 E18.31627
G1 X3.073 Y168.177 E18.34746
G1 X3.013 Y167.288 E18.37709
G1 X3.004 Y166.955 E18.38817
G1 X3 Y166.658 E18.39805
G1 X3.001 Y53.525 E22.16087
G1 X3.01 Y52.86 E22.18299
G1 X3.063 Y51.924 E22.21417
G1 X3.195 Y50.995 E22.24538
G1 X3.406 Y50.081 E22.27658
G1 X3.694 Y49.189 E22.30776
G1 X4.057 Y48.324 E22.33896
G1 X4.492 Y47.493 E22.37015
G1 X4.996 Y46.703 E22.40132
G1 X5.566 Y45.958 E22.43252
G1 X6.198 Y45.264 E22.46374
G1 X6.886 Y44.627 E22.49492
G1 X7.626 Y44.051 E22.52611
G1 X8.412 Y43.539 E22.55731
G1 X9.239 Y43.097 E22.5885
G1 X10.101 Y42.727 E22.6197
G1 X10.991 Y42.431 E22.6509
G0 F6000 X11.345 Y42.749
G1 F1200 X12.245 Y42.557 E22.68151
G1 X13.159 Y42.443 E22.71214
G1 X13.712 Y42.413 E22.73056
G1 X14.033 Y42.404 E22.74124
G1 X14.33 Y42.4 E22.75112
G1 X205.293 Y42.4 E29.10258
G1 X206.143 Y42.411 E29.13085
G1 X207.062 Y42.464 E29.16147
G1 X207.973 Y42.597 E29.19209
G1 X208.869 Y42.808 E29.2227
G1 X209.743 Y43.096 E29.25331
G1 X210.59 Y43.459 E29.28396
G1 X211.401 Y43.894 E29.31457
G1 X212.171 Y44.398 E29.34518
G1 X212.895 Y44.967 E29.3758
G1 X213.567 Y45.597 E29.40644
G1 X214.182 Y46.282 E29.43706
G1 X214.735 Y47.018 E29.46768
G1 X215.222 Y47.799 E29.49829
G1 X215.639 Y48.62 E29.52892
G1 X215.984 Y49.474 E29.55955
G1 X216.253 Y50.354 E29.59016
G1 X216.445 Y51.255 E29.6208
G1 X216.558 Y52.168 E29.6514
G1 X216.587 Y52.712 E29.66952
G1 X216.596 Y53.032 E29.68016
G1 X216.6 Y53.33 E29.69008
G1 X216.599 Y166.395 E33.45063
G1 X216.59 Y167.122 E33.47482
G1 X216.539 Y168.041 E33.50543
G1 X216.408 Y168.953 E33.53607
G1 X216.198 Y169.849 E33.56668
G1 X215.912 Y170.724 E33.5973
G1 X215.551 Y171.571 E33.62792
G1 X215.117 Y172.383 E33.65855
G1 X214.615 Y173.155 E33.68917
G1 X214.047 Y173.88 E33.71981
G1 X213.419 Y174.553 E33.75042
G1 X212.735 Y175.169 E33.78104
G1 X212 Y175.723 E33.81165
G1 X211.22 Y176.212 E33.84227
G1 X210.4 Y176.631 E33.8729
G1 X209.547 Y176.977 E33.90351
G1 X208.667 Y177.248 E33.93414
G1 X207.767 Y177.441 E33.96475
G1 X206.853 Y177.556 E33.99539
G1 X206.288 Y177.587 E34.01421
G1 X205.967 Y177.596 E34.02489
G1 X205.67 Y177.6 E34.03477
G1 X14.57 Y177.599 E40.39079
G1 X13.872 Y177.59 E40.414
G1 X12.953 Y177.538 E40.44462
G1 X12.042 Y177.407 E40.47523
G1 X11.146 Y177.197 E40.50584
G1 X10.271 Y176.91 E40.53647
G1 X9.424 Y176.548 E40.5671
G1 X8.612 Y176.114 E40.59773
G1 X7.841 Y175.612 E40.62833
G1 X7.116 Y175.044 E40.65896
G1 X6.443 Y174.415 E40.6896
G1 X5.828 Y173.731 E40.72019
G1 X5.274 Y172.996 E40.7508
G1 X4.786 Y172.215 E40.78143
G1 X4.367 Y171.395 E40.81206
G1 X4.021 Y170.542 E40.84268
G1 X3.751 Y169.662 E40.87329
G1 X3.558 Y168.761 E40.90394
G1 X3.444 Y167.848 E40.93454
G1 X3.413 Y167.277 E40.95356
G1 X3.404 Y166.944 E40.96464
G1 X3.4 Y166.658 E40.97415
G1 X3.401 Y53.531 E44.73677
G1 X3.41 Y52.866 E44.75889
G1 X3.462 Y51.946 E44.78954
G1 X3.594 Y51.035 E44.82016
G1 X3.805 Y50.139 E44.85077
G1 X4.092 Y49.264 E44.8814
G1 X4.455 Y48.418 E44.91202
G1 X4.889 Y47.606 E44.94264
G1 X5.392 Y46.835 E44.97326
G1 X5.961 Y46.111 E45.00389
G1 X6.589 Y45.439 E45.03448
G1 X7.274 Y44.823 E45.06512
G1 X8.01 Y44.27 E45.09574
G1 X8.791 Y43.782 E45.12637
G1 X9.611 Y43.364 E45.15698
G1 X10.465 Y43.019 E45.18762
G1 X11.345 Y42.749 E45.21823
G0 F6000 X10.827 Y43.318
G1 F1200 X11.696 Y43.075 E45.24825
G1 X12.584 Y42.909 E45.27829
G1 X13.723 Y42.813 E45.31631
G1 X14.044 Y42.804 E45.32699
G1 X14.33 Y42.8 E45.3365
G1 X205.293 Y42.8 E51.68796
G1 X206.137 Y42.811 E51.71603
G1 X207.039 Y42.864 E51.74609
G1 X207.932 Y42.996 E51.77611
G1 X208.81 Y43.207 E51.80614
G1 X209.666 Y43.495 E51.83618
G1 X210.493 Y43.857 E51.86621
G1 X211.285 Y44.292 E51.89626
G1 X212.036 Y44.794 E51.92631
G1 X212.739 Y45.361 E51.95635
G1 X213.389 Y45.988 E51.98638
G1 X213.981 Y46.67 E52.01642
G1 X214.511 Y47.401 E52.04645
G1 X214.973 Y48.177 E52.07649
G1 X215.366 Y48.99 E52.10652
G1 X215.684 Y49.835 E52.13655
G1 X215.927 Y50.705 E52.1666
G1 X216.092 Y51.593 E52.19664
G1 X216.187 Y52.723 E52.23435
G1 X216.196 Y53.043 E52.245
G1 X216.2 Y53.33 E52.25455
G1 X216.199 Y166.39 E56.01494
G1 X216.19 Y167.117 E56.03912
G1 X216.139 Y168.019 E56.06917
G1 X216.008 Y168.913 E56.09922
G1 X215.799 Y169.791 E56.12924
G1 X215.513 Y170.648 E56.15929
G1 X215.152 Y171.476 E56.18933
G1 X214.72 Y172.268 E56.21934
G1 X214.219 Y173.02 E56.24939
G1 X213.653 Y173.724 E56.27944
G1 X213.028 Y174.375 E56.30945
G1 X212.347 Y174.969 E56.33951
G1 X211.616 Y175.5 E56.36956
G1 X210.842 Y175.964 E56.39957
G1 X210.029 Y176.358 E56.42962
G1 X209.185 Y176.678 E56.45964
G1 X208.315 Y176.923 E56.48971
G1 X207.428 Y177.089 E56.51972
G1 X206.277 Y177.187 E56.55814
G1 X205.956 Y177.196 E56.56882
G1 X205.67 Y177.2 E56.57833
G1 X14.575 Y177.199 E62.93418
G1 X13.877 Y177.19 E62.9574
G1 X12.976 Y177.139 E62.98741
G1 X12.082 Y177.007 E63.01747
G1 X11.204 Y176.798 E63.04749
G1 X10.347 Y176.511 E63.07755
G1 X9.52 Y176.15 E63.10756
G1 X8.727 Y175.717 E63.13761
G1 X7.976 Y175.216 E63.16764
G1 X7.272 Y174.65 E63.19768
G1 X6.621 Y174.024 E63.22772
G1 X6.028 Y173.343 E63.25776
G1 X5.498 Y172.612 E63.28779
G1 X5.034 Y171.837 E63.31783
G1 X4.64 Y171.024 E63.34788
G1 X4.32 Y170.18 E63.3779
G1 X4.076 Y169.31 E63.40795
G1 X3.91 Y168.422 E63.438
G1 X3.813 Y167.267 E63.47655
G1 X3.804 Y166.934 E63.48763
G1 X3.8 Y166.658 E63.49681
G1 X3.801 Y53.536 E67.25926
G1 X3.81 Y52.871 E67.28138
G1 X3.862 Y51.969 E67.31143
G1 X3.994 Y51.076 E67.34146
G1 X4.204 Y50.198 E67.37148
G1 X4.491 Y49.341 E67.40154
G1 X4.853 Y48.514 E67.43157
G1 X5.286 Y47.722 E67.46159
G1 X5.788 Y46.971 E67.49164
G1 X6.355 Y46.267 E67.5217
G1 X6.981 Y45.617 E67.55172
G1 X7.662 Y45.024 E67.58175
G1 X8.394 Y44.494 E67.61181
G1 X9.169 Y44.031 E67.64183
G1 X9.982 Y43.638 E67.67187
G1 X10.827 Y43.318 E67.70192
G1 F1500 E61.20192
;MESH:Freaq Panel Latest.stl
G0 F6000 X22.75 Y61.6
G0 X21.884 Y60.408
G0 X21.442 Y61.594
G0 X21.351 Y62.15
G0 X21.442 Y62.706
G0 X21.696 Y63.206
G0 X22.094 Y63.604
G0 X22.499 Y63.811
G0 X23.756 Y64.014
;TYPE:WALL-INNER
G1 F1500 E67.70192
G1 F1200 X24.302 Y63.736 E67.7223
G1 X24.736 Y63.302 E67.74271
G1 X25.014 Y62.756 E67.76309
G1 X25.109 Y62.15 E67.78349
G1 X25.014 Y61.544 E67.8039
G1 X24.736 Y60.998 E67.82427
G1 X24.302 Y60.564 E67.84469
G1 X23.757 Y60.287 E67.86502
G1 X23.15 Y60.189 E67.88547
G1 X22.543 Y60.287 E67.90592
G1 X21.998 Y60.564 E67.92626
G1 X21.564 Y60.998 E67.94667
G1 X21.287 Y61.543 E67.967
G1 X21.189 Y62.15 E67.98745
G1 X21.287 Y62.757 E68.0079
G1 X21.564 Y63.302 E68.02824
G1 X21.998 Y63.736 E68.04865
G1 X22.544 Y64.014 E68.06903
G1 X23.15 Y64.109 E68.08943
G1 X23.756 Y64.014 E68.10983
G0 F6000 X23.631 Y63.629
;TYPE:WALL-OUTER
G1 F1200 X24.064 Y63.408 E68.126
G1 X24.408 Y63.064 E68.14218
G1 X24.629 Y62.631 E68.15835
G1 X24.704 Y62.15 E68.17454
G1 X24.629 Y61.669 E68.19074
G1 X24.408 Y61.236 E68.20691
G1 X24.064 Y60.892 E68.22309
G1 X23.631 Y60.672 E68.23924
G1 X23.15 Y60.594 E68.25545
G1 X22.669 Y60.672 E68.27165
G1 X22.236 Y60.892 E68.28781
G1 X21.892 Y61.236 E68.30399
G1 X21.672 Y61.669 E68.32014
G1 X21.594 Y62.15 E68.33635
G1 X21.672 Y62.631 E68.35256
G1 X21.892 Y63.064 E68.36871
G1 X22.236 Y63.408 E68.38489
G1 X22.669 Y63.629 E68.40106
G1 X23.15 Y63.704 E68.41725
G1 X23.631 Y63.629 E68.43344
G0 F6000 X23.766 Y64.047
G1 F1500 E61.93344
G0 F6000 X24.416 Y63.892
G0 X23.55 Y62.7
G0 X31.963 Y75.753
G0 X31.097 Y74.561
G0 X29.98 Y76.672
G0 X29.803 Y77.8
G0 X29.98 Y78.928
G0 X30.499 Y79.943
G0 X31.307 Y80.751
G0 X32.322 Y81.27
G0 X33.45 Y81.447
G0 X34.363 Y81.304
G0 X35.689 Y80.883
;TYPE:WALL-INNER
G1 F1500 E68.43344
G1 F1200 X36.533 Y80.039 E68.47314
G1 X37.074 Y78.978 E68.51275
G1 X37.259 Y77.8 E68.55241
G1 X37.074 Y76.622 E68.59208
G1 X36.533 Y75.561 E68.63169
G1 X35.689 Y74.717 E68.67139
G1 X34.628 Y74.176 E68.711
G1 X33.45 Y73.991 E68.75066
G1 X32.272 Y74.176 E68.79032
G1 X31.211 Y74.717 E68.82993
G1 X30.367 Y75.561 E68.86963
G1 X29.826 Y76.622 E68.90924
G1 X29.64 Y77.8 E68.94891
G1 X29.826 Y78.978 E68.98857
G1 X30.367 Y80.039 E69.02819
G1 X31.211 Y80.883 E69.06788
G1 X32.272 Y81.424 E69.1075
G1 X33.45 Y81.61 E69.14716
G1 X34.628 Y81.424 E69.18683
G1 X35.689 Y80.883 E69.22644
G0 F6000 X35.451 Y80.555
;TYPE:WALL-OUTER
G1 F1200 X36.205 Y79.801 E69.26191
G1 X36.689 Y78.853 E69.29731
G1 X36.854 Y77.8 E69.33276
G1 X36.689 Y76.747 E69.36821
G1 X36.205 Y75.799 E69.40361
G1 X35.451 Y75.045 E69.43908
G1 X34.503 Y74.561 E69.47448
G1 X33.45 Y74.396 E69.50993
G1 X32.397 Y74.561 E69.54538
G1 X31.449 Y75.045 E69.58078
G1 X30.695 Y75.799 E69.61625
G1 X30.211 Y76.747 E69.65165
G1 X30.045 Y77.8 E69.68711
G1 X30.211 Y78.853 E69.72256
G1 X30.695 Y79.801 E69.75796
G1 X31.449 Y80.555 E69.79343
G1 X32.397 Y81.039 E69.82883
G1 X33.45 Y81.205 E69.86429
G1 X34.503 Y81.039 E69.89974
G1 X35.451 Y80.555 E69.93514
G0 F6000 X35.709 Y80.91
G1 F1500 E63.43514
G0 F6000 X36.689 Y80.153
G0 X35.497 Y79.287
G0 X61.353 Y79.287
G0 X60.161 Y80.153
G0 X62.272 Y81.27
G0 X63.185 Y81.413
G0 X64.578 Y81.424
;TYPE:WALL-INNER
G1 F1500 E69.93514
G1 F1200 X65.639 Y80.883 E69.97476
G1 X66.483 Y80.039 E70.01446
G1 X67.024 Y78.978 E70.05407
G1 X67.209 Y77.8 E70.09373
G1 X67.024 Y76.622 E70.13339
G1 X66.483 Y75.561 E70.173
G1 X65.639 Y74.717 E70.2127
G1 X64.578 Y74.176 E70.25231
G1 X63.4 Y73.991 E70.29197
G1 X62.222 Y74.176 E70.33163
G1 X61.161 Y74.717 E70.37124
G1 X60.317 Y75.561 E70.41094
G1 X59.776 Y76.622 E70.45055
G1 X59.59 Y77.8 E70.49022
G1 X59.776 Y78.978 E70.52989
G1 X60.317 Y80.039 E70.5695
G1 X61.161 Y80.883 E70.6092
G1 X62.222 Y81.424 E70.64881
G1 X63.4 Y81.61 E70.68847
G1 X64.578 Y81.424 E70.72814
G0 F6000 X64.453 Y81.039
;TYPE:WALL-OUTER
G1 F1200 X65.401 Y80.555 E70.76354
G1 X66.155 Y79.801 E70.79901
G1 X66.639 Y78.853 E70.83441
G1 X66.804 Y77.8 E70.86986
G1 X66.639 Y76.747 E70.90531
G1 X66.155 Y75.799 E70.94071
G1 X65.401 Y75.045 E70.97618
G1 X64.453 Y74.561 E71.01158
G1 X63.4 Y74.396 E71.04703
G1 X62.347 Y74.561 E71.08248
G1 X61.399 Y75.045 E71.11788
G1 X60.645 Y75.799 E71.15335
G1 X60.161 Y76.747 E71.18875
G1 X59.995 Y77.8 E71.22421
G1 X60.161 Y78.853 E71.25966
G1 X60.645 Y79.801 E71.29507
G1 X61.399 Y80.555 E71.33053
G1 X62.347 Y81.039 E71.36593
G1 X63.4 Y81.205 E71.40139
G1 X64.453 Y81.039 E71.43685
G0 F6000 X64.588 Y81.457
G1 F1500 E64.93685
G0 F6000 X66.639 Y80.153
G0 X65.447 Y79.287
G0 X90.303 Y79.287
G0 X89.111 Y80.153
G0 X91.01 Y81.158
G0 X92.35 Y81.61
;TYPE:WALL-INNER
G1 F1500 E71.43685
G1 F1200 X93.528 Y81.424 E71.47651
G1 X94.589 Y80.883 E71.51612
G1 X95.433 Y80.039 E71.55582
G1 X95.974 Y78.978 E71.59543
G1 X96.159 Y77.8 E71.63509
G1 X95.974 Y76.622 E71.67475
G1 X95.433 Y75.561 E71.71437
G1 X94.589 Y74.717 E71.75407
G1 X93.528 Y74.176 E71.79368
G1 X92.35 Y73.991 E71.83334
G1 X91.172 Y74.176 E71.873
G1 X90.111 Y74.717 E71.91261
G1 X89.267 Y75.561 E71.95231
G1 X88.726 Y76.622 E71.99192
G1 X88.54 Y77.8 E72.03159
G1 X88.726 Y78.978 E72.07125
G1 X89.267 Y80.039 E72.11086
G1 X90.111 Y80.883 E72.15056
G1 X91.172 Y81.424 E72.19018
G1 X92.35 Y81.61 E72.22984
G0 F6000 X92.35 Y81.205
;TYPE:WALL-OUTER
G1 F1200 X93.403 Y81.039 E72.2653
G1 X94.351 Y80.555 E72.3007
G1 X95.105 Y79.801 E72.33617
G1 X95.589 Y78.853 E72.37157
G1 X95.754 Y77.8 E72.40702
G1 X95.589 Y76.747 E72.44247
G1 X95.105 Y75.799 E72.47787
G1 X94.351 Y75.045 E72.51334
G1 X93.403 Y74.561 E72.54874
G1 X92.35 Y74.396 E72.58419
G1 X91.297 Y74.561 E72.61964
G1 X90.349 Y75.045 E72.65504
G1 X89.595 Y75.799 E72.69051
G1 X89.111 Y76.747 E72.72591
G1 X88.945 Y77.8 E72.76136
G1 X89.111 Y78.853 E72.79682
G1 X89.595 Y79.801 E72.83222
G1 X90.349 Y80.555 E72.86769
G1 X91.297 Y81.039 E72.90309
G1 X92.35 Y81.205 E72.93855
G0 F6000 X92.35 Y81.645
G1 F1500 E66.43855
G0 F6000 X94.703 Y81.039
G0 X93.837 Y79.847
G0 X119.253 Y79.287
G0 X118.061 Y80.153
G0 X119.96 Y81.158
G0 X121.3 Y81.61
;TYPE:WALL-INNER
G1 F1500 E72.93855
G1 F1200 X122.478 Y81.424 E72.97821
G1 X123.539 Y80.883 E73.01782
G1 X124.383 Y80.039 E73.05752
G1 X124.924 Y78.978 E73.09713
G1 X125.11 Y77.8 E73.1368
G1 X124.924 Y76.622 E73.17647
G1 X124.383 Y75.561 E73.21608
G1 X123.539 Y74.717 E73.25578
G1 X122.478 Y74.176 E73.29539
G1 X121.3 Y73.991 E73.33505
G1 X120.122 Y74.176 E73.37471
G1 X119.061 Y74.717 E73.41432
G1 X118.217 Y75.561 E73.45402
G1 X117.676 Y76.622 E73.49363
G1 X117.491 Y77.8 E73.53329
G1 X117.676 Y78.978 E73.57295
G1 X118.217 Y80.039 E73.61257
G1 X119.061 Y80.883 E73.65226
G1 X120.122 Y81.424 E73.69188
G1 X121.3 Y81.61 E73.73154
G0 F6000 X121.3 Y81.205
;TYPE:WALL-OUTER
G1 F1200 X122.353 Y81.039 E73.767
G1 X123.301 Y80.555 E73.8024
G1 X124.055 Y79.801 E73.83787
G1 X124.539 Y78.853 E73.87327
G1 X124.705 Y77.8 E73.90872
G1 X124.539 Y76.747 E73.94418
G1 X124.055 Y75.799 E73.97958
G1 X123.301 Y75.045 E74.01505
G1 X122.353 Y74.561 E74.05045
G1 X121.3 Y74.396 E74.0859
G1 X120.247 Y74.561 E74.12135
