;FLAVOR:Marlin
;TIME:2052
;Filament used: 1.36599m
;Layer height: 0.2
;MINX:68.5
;MINY:81.5
;MINZ:0.2
;MAXX:151.5
;MAXY:138.5
;MAXZ:2
;Generated with Cura_SteamEngine 4.13.1
M140 S60
M105
M190 S60
M104 S200
M105
M109 S200
M82 ;absolute extrusion mode
; Ender 3 Custom Start G-code
G92 E0 ; Reset Extruder
G28 ; Home all axes
G1 Z2.0 F3000 ; Move Z Axis up little to prevent scratching of Heat Bed
G1 X0.1 Y20 Z0.3 F5000.0 ; Move to start position
G1 X0.1 Y200.0 Z0.3 F1500.0 E15 ; Draw the first line
G1 X0.4 Y200.0 Z0.3 F5000.0 ; Move to side a little
G1 X0.4 Y20 Z0.3 F1500.0 E30 ; Draw the second line
G92 E0 ; Reset Extruder
G1 Z2.0 F3000 ; Move Z Axis up little to prevent scratching of Heat Bed
G1 X5 Y20 Z0.3 F5000.0 ; Move over to prevent blob squish
G92 E0
G92 E0
G1 F1500 E-6.5
;LAYER_COUNT:10
;LAYER:0
M107
G0 F6000 X72.399 Y84.116 Z0.2
;TYPE:SKIRT
G1 F1500 E0
G1 F1200 X73.14 Y83.541 E0.0312
G1 X73.927 Y83.031 E0.06239
G1 X74.755 Y82.59 E0.09359
G1 X75.617 Y82.221 E0.12478
G1 X76.508 Y81.927 E0.15598
G1 X77.42 Y81.709 E0.18717
G1 X78.347 Y81.571 E0.21834
G1 X79.201 Y81.513 E0.24681
G1 X79.521 Y81.504 E0.25746
G1 X79.83 Y81.5 E0.26774
G1 X139.793 Y81.5 E2.26211
G1 X140.649 Y81.511 E2.29059
G1 X141.585 Y81.565 E2.32177
G1 X142.513 Y81.697 E2.35295
G1 X143.427 Y81.909 E2.38415
G1 X144.319 Y82.198 E2.41534
G1 X145.184 Y82.561 E2.44654
G1 X146.014 Y82.997 E2.47772
G1 X146.805 Y83.502 E2.50894
G1 X147.549 Y84.073 E2.54013
G1 X148.242 Y84.705 E2.57133
G1 X148.879 Y85.393 E2.60251
G1 X149.454 Y86.134 E2.63371
G1 X149.965 Y86.92 E2.66489
G1 X150.407 Y87.748 E2.6961
G1 X150.776 Y88.61 E2.72729
G1 X151.071 Y89.5 E2.75848
G1 X151.289 Y90.412 E2.78966
G1 X151.429 Y91.34 E2.82088
G1 X151.487 Y92.201 E2.84958
G1 X151.496 Y92.521 E2.86023
G1 X151.5 Y92.83 E2.87051
G1 X151.499 Y101.923 E3.17294
G1 X151.489 Y102.645 E3.19696
G1 X151.463 Y103.269 E3.21773
G1 X151.436 Y103.651 E3.23047
G1 X151.292 Y106.18 E3.31472
G1 X151.221 Y108.666 E3.39744
G1 X151.221 Y111.19 E3.48138
G1 X151.292 Y113.714 E3.56537
G1 X151.438 Y116.319 E3.65215
G1 X151.45 Y116.486 E3.65771
G1 X151.472 Y116.868 E3.67044
G1 X151.485 Y117.166 E3.68036
G1 X151.495 Y117.495 E3.69131
G1 X151.5 Y117.829 E3.70242
G1 X151.499 Y126.915 E4.00462
G1 X151.489 Y127.642 E4.0288
G1 X151.436 Y128.579 E4.06002
G1 X151.304 Y129.507 E4.09119
G1 X151.093 Y130.421 E4.12239
G1 X150.804 Y131.313 E4.15358
G1 X150.441 Y132.178 E4.18478
G1 X150.006 Y133.009 E4.21598
G1 X149.501 Y133.799 E4.24716
G1 X148.931 Y134.544 E4.27836
G1 X148.3 Y135.238 E4.30956
G1 X147.611 Y135.875 E4.34077
G1 X146.871 Y136.451 E4.37196
G1 X146.085 Y136.962 E4.40314
G1 X145.258 Y137.404 E4.43433
G1 X144.396 Y137.774 E4.46553
G1 X143.506 Y138.069 E4.49671
G1 X142.594 Y138.288 E4.52791
G1 X141.667 Y138.428 E4.55909
G1 X140.799 Y138.487 E4.58803
G1 X140.479 Y138.496 E4.59867
G1 X140.17 Y138.5 E4.60895
G1 X80.065 Y138.499 E6.60805
G1 X79.367 Y138.49 E6.63127
G1 X78.431 Y138.438 E6.66245
G1 X77.502 Y138.306 E6.69366
G1 X76.588 Y138.096 E6.72485
G1 X75.695 Y137.809 E6.75605
G1 X74.83 Y137.446 E6.78725
G1 X73.999 Y137.012 E6.81843
G1 X73.208 Y136.508 E6.84963
G1 X72.463 Y135.938 E6.88083
G1 X71.769 Y135.307 E6.91202
G1 X71.132 Y134.62 E6.94318
G1 X70.555 Y133.88 E6.97439
G1 X70.043 Y133.094 E7.00559
G1 X69.6 Y132.267 E7.0368
G1 X69.229 Y131.406 E7.06798
G1 X68.933 Y130.516 E7.09917
G1 X68.714 Y129.604 E7.13037
G1 X68.573 Y128.677 E7.16156
G1 X68.513 Y127.788 E7.19119
G1 X68.504 Y127.455 E7.20227
G1 X68.5 Y127.158 E7.21215
G1 X68.501 Y118.05 E7.51508
G1 X68.511 Y117.357 E7.53814
G1 X68.537 Y116.744 E7.55854
G1 X68.562 Y116.383 E7.57058
G1 X68.707 Y113.822 E7.65589
G1 X68.779 Y111.327 E7.73891
G1 X68.779 Y108.802 E7.8229
G1 X68.708 Y106.278 E7.90688
G1 X68.563 Y103.701 E7.99272
G1 X68.528 Y103.14 E8.01142
G1 X68.513 Y102.797 E8.02284
G1 X68.504 Y102.478 E8.03345
G1 X68.5 Y102.168 E8.04376
G1 X68.501 Y93.009 E8.34839
G1 X68.511 Y92.344 E8.37051
G1 X68.565 Y91.407 E8.40173
G1 X68.699 Y90.479 E8.43292
G1 X68.911 Y89.565 E8.46412
G1 X69.2 Y88.673 E8.49531
G1 X69.565 Y87.809 E8.5265
G1 X70.001 Y86.979 E8.55769
G1 X70.507 Y86.189 E8.58889
G1 X71.078 Y85.445 E8.62008
G1 X71.71 Y84.752 E8.65128
G1 X72.399 Y84.116 E8.68247
G0 F6000 X72.788 Y84.313
G1 F1200 X73.524 Y83.761 E8.71307
G1 X74.306 Y83.274 E8.74371
G1 X75.127 Y82.858 E8.77432
G1 X75.981 Y82.514 E8.80494
G1 X76.861 Y82.245 E8.83555
G1 X77.762 Y82.054 E8.86618
G1 X78.676 Y81.942 E8.89681
G1 X79.212 Y81.913 E8.91466
G1 X79.532 Y81.904 E8.92531
G1 X79.83 Y81.9 E8.93522
G1 X139.793 Y81.9 E10.9296
G1 X140.643 Y81.911 E10.95787
G1 X141.562 Y81.964 E10.98849
G1 X142.473 Y82.097 E11.01911
G1 X143.369 Y82.308 E11.04973
G1 X144.243 Y82.596 E11.08033
G1 X145.09 Y82.959 E11.11098
G1 X145.901 Y83.394 E11.14159
G1 X146.671 Y83.898 E11.1722
G1 X147.395 Y84.467 E11.20283
G1 X148.067 Y85.097 E11.23346
G1 X148.682 Y85.782 E11.26408
G1 X149.235 Y86.518 E11.2947
G1 X149.722 Y87.299 E11.32531
G1 X150.139 Y88.12 E11.35594
G1 X150.484 Y88.974 E11.38657
G1 X150.753 Y89.854 E11.41718
G1 X150.945 Y90.755 E11.44782
G1 X151.058 Y91.668 E11.47842
G1 X151.087 Y92.212 E11.49654
G1 X151.096 Y92.532 E11.50719
G1 X151.1 Y92.83 E11.5171
G1 X151.099 Y101.918 E11.81937
G1 X151.089 Y102.64 E11.84338
G1 X151.064 Y103.24 E11.86336
G1 X151.041 Y103.56 E11.87403
G1 X150.894 Y106.148 E11.96024
G1 X150.821 Y108.689 E12.04479
G1 X150.821 Y111.201 E12.12834
G1 X150.892 Y113.749 E12.21312
G1 X151.035 Y116.276 E12.2973
G1 X151.072 Y116.891 E12.3178
G1 X151.085 Y117.178 E12.32735
G1 X151.095 Y117.507 E12.3383
G1 X151.1 Y117.829 E12.34901
G1 X151.099 Y126.91 E12.65104
G1 X151.089 Y127.637 E12.67523
G1 X151.036 Y128.556 E12.70584
G1 X150.904 Y129.467 E12.73646
G1 X150.693 Y130.363 E12.76708
G1 X150.406 Y131.238 E12.7977
G1 X150.043 Y132.084 E12.82832
G1 X149.609 Y132.896 E12.85895
G1 X149.105 Y133.667 E12.88958
G1 X148.537 Y134.391 E12.92019
G1 X147.908 Y135.063 E12.9508
G1 X147.223 Y135.678 E12.98142
G1 X146.487 Y136.231 E13.01204
G1 X145.706 Y136.719 E13.04267
G1 X144.886 Y137.137 E13.07328
G1 X144.032 Y137.482 E13.10392
G1 X143.152 Y137.751 E13.13452
G1 X142.251 Y137.944 E13.16517
G1 X141.338 Y138.057 E13.19577
G1 X140.788 Y138.087 E13.21409
G1 X140.468 Y138.096 E13.22474
G1 X140.17 Y138.1 E13.23465
G1 X80.07 Y138.099 E15.23358
G1 X79.372 Y138.09 E15.2568
G1 X78.453 Y138.038 E15.28742
G1 X77.542 Y137.907 E15.31803
G1 X76.646 Y137.697 E15.34864
G1 X75.771 Y137.41 E15.37926
G1 X74.924 Y137.048 E15.4099
G1 X74.112 Y136.614 E15.44052
G1 X73.341 Y136.112 E15.47112
G1 X72.616 Y135.544 E15.50176
G1 X71.943 Y134.915 E15.5324
G1 X71.328 Y134.231 E15.56299
G1 X70.774 Y133.496 E15.5936
G1 X70.286 Y132.715 E15.62423
G1 X69.867 Y131.895 E15.65486
G1 X69.521 Y131.042 E15.68548
G1 X69.251 Y130.162 E15.71609
G1 X69.058 Y129.261 E15.74674
G1 X68.944 Y128.348 E15.77734
G1 X68.913 Y127.777 E15.79636
G1 X68.904 Y127.444 E15.80744
G1 X68.9 Y127.158 E15.81695
G1 X68.901 Y118.056 E16.11969
G1 X68.911 Y117.363 E16.14274
G1 X68.936 Y116.772 E16.16241
G1 X68.96 Y116.435 E16.17365
G1 X69.106 Y113.855 E16.2596
G1 X69.179 Y111.303 E16.34451
G1 X69.179 Y108.791 E16.42806
G1 X69.108 Y106.243 E16.51284
G1 X68.962 Y103.67 E16.59856
G1 X68.928 Y103.116 E16.61702
G1 X68.913 Y102.786 E16.62801
G1 X68.904 Y102.467 E16.63862
G1 X68.9 Y102.168 E16.64857
G1 X68.901 Y93.015 E16.953
G1 X68.911 Y92.35 E16.97512
G1 X68.965 Y91.431 E17.00573
G1 X69.098 Y90.52 E17.03636
G1 X69.31 Y89.624 E17.06698
G1 X69.599 Y88.749 E17.09763
G1 X69.963 Y87.904 E17.12823
G1 X70.398 Y87.093 E17.15884
G1 X70.903 Y86.322 E17.18949
G1 X71.472 Y85.599 E17.2201
G1 X72.102 Y84.927 E17.25073
G1 X72.788 Y84.313 E17.28135
G0 F6000 X73.175 Y84.514
G1 F1200 X73.907 Y83.985 E17.31139
G1 X74.683 Y83.523 E17.34143
G1 X75.497 Y83.132 E17.37146
G1 X76.342 Y82.813 E17.40151
G1 X77.212 Y82.571 E17.43154
G1 X78.1 Y82.407 E17.46157
G1 X79.223 Y82.313 E17.49906
G1 X79.543 Y82.304 E17.5097
G1 X79.83 Y82.3 E17.51925
G1 X139.793 Y82.3 E19.51363
G1 X140.637 Y82.311 E19.5417
G1 X141.539 Y82.364 E19.57175
G1 X142.432 Y82.496 E19.60178
G1 X143.31 Y82.707 E19.63181
G1 X144.166 Y82.995 E19.66185
G1 X144.993 Y83.357 E19.69188
G1 X145.785 Y83.792 E19.72193
G1 X146.536 Y84.294 E19.75198
G1 X147.239 Y84.861 E19.78202
G1 X147.889 Y85.488 E19.81205
G1 X148.481 Y86.17 E19.84209
G1 X149.011 Y86.901 E19.87212
G1 X149.473 Y87.677 E19.90216
G1 X149.866 Y88.49 E19.93219
G1 X150.184 Y89.335 E19.96222
G1 X150.427 Y90.205 E19.99227
G1 X150.592 Y91.093 E20.02231
G1 X150.687 Y92.223 E20.06002
G1 X150.696 Y92.543 E20.07067
G1 X150.7 Y92.83 E20.08022
G1 X150.699 Y101.912 E20.38229
G1 X150.689 Y102.634 E20.4063
G1 X150.665 Y103.212 E20.42554
G1 X150.638 Y103.594 E20.43828
G1 X150.495 Y106.095 E20.5216
G1 X150.421 Y108.678 E20.60755
G1 X150.421 Y111.212 E20.69183
G1 X150.492 Y113.746 E20.77614
G1 X150.636 Y116.308 E20.86149
G1 X150.673 Y116.914 E20.88168
G1 X150.685 Y117.19 E20.89087
G1 X150.695 Y117.519 E20.90182
G1 X150.7 Y117.829 E20.91213
G1 X150.699 Y126.904 E21.21396
G1 X150.689 Y127.631 E21.23815
G1 X150.637 Y128.533 E21.2682
G1 X150.505 Y129.426 E21.29822
G1 X150.294 Y130.305 E21.32829
G1 X150.007 Y131.161 E21.35832
G1 X149.645 Y131.988 E21.38834
G1 X149.211 Y132.78 E21.41838
G1 X148.709 Y133.531 E21.44842
G1 X148.143 Y134.234 E21.47844
G1 X147.516 Y134.885 E21.50851
G1 X146.835 Y135.477 E21.53852
G1 X146.104 Y136.007 E21.56855
G1 X145.328 Y136.47 E21.5986
G1 X144.515 Y136.863 E21.62864
G1 X143.67 Y137.183 E21.65869
G1 X142.801 Y137.426 E21.6887
G1 X141.913 Y137.591 E21.71874
G1 X140.777 Y137.687 E21.75666
G1 X140.457 Y137.696 E21.76731
G1 X140.17 Y137.7 E21.77685
G1 X80.075 Y137.699 E23.77562
G1 X79.377 Y137.69 E23.79884
G1 X78.476 Y137.639 E23.82886
G1 X77.582 Y137.507 E23.85891
G1 X76.704 Y137.298 E23.88893
G1 X75.847 Y137.011 E23.91899
G1 X75.02 Y136.65 E23.949
G1 X74.227 Y136.217 E23.97905
G1 X73.476 Y135.716 E24.00908
G1 X72.772 Y135.15 E24.03912
G1 X72.121 Y134.524 E24.06916
G1 X71.528 Y133.843 E24.0992
G1 X70.998 Y133.112 E24.12923
G1 X70.534 Y132.337 E24.15927
G1 X70.14 Y131.524 E24.18932
G1 X69.82 Y130.68 E24.21934
G1 X69.576 Y129.81 E24.24939
G1 X69.41 Y128.922 E24.27944
G1 X69.313 Y127.767 E24.31799
G1 X69.304 Y127.434 E24.32907
G1 X69.3 Y127.158 E24.33825
G1 X69.301 Y118.062 E24.64079
G1 X69.311 Y117.369 E24.66384
G1 X69.335 Y116.8 E24.68278
G1 X69.357 Y116.484 E24.69332
G1 X69.506 Y113.854 E24.78093
G1 X69.579 Y111.315 E24.86541
G1 X69.579 Y108.78 E24.94973
G1 X69.508 Y106.246 E25.03404
G1 X69.361 Y103.639 E25.12089
G1 X69.327 Y103.092 E25.13912
G1 X69.313 Y102.775 E25.14967
G1 X69.304 Y102.456 E25.16028
G1 X69.3 Y102.168 E25.16986
G1 X69.301 Y93.021 E25.47409
G1 X69.311 Y92.356 E25.49622
G1 X69.365 Y91.454 E25.52627
G1 X69.498 Y90.561 E25.5563
G1 X69.709 Y89.683 E25.58633
G1 X69.998 Y88.827 E25.61638
G1 X70.361 Y88 E25.64642
G1 X70.795 Y87.209 E25.67643
G1 X71.298 Y86.458 E25.70649
G1 X71.866 Y85.756 E25.73653
G1 X72.493 Y85.106 E25.76657
G1 X73.175 Y84.514 E25.7966
G1 F1500 E19.2966
;MESH:LED Matrix Lid.stl
G0 F6000 X82.683 Y121.52
G0 X82.226 Y120.12
G0 X81.263 Y121.238
G0 X80.957 Y121.836
G0 X80.851 Y122.5
G0 X80.957 Y123.164
G0 X81.263 Y123.762
G0 X81.738 Y124.237
G0 X82.337 Y124.543
G0 X83.714 Y124.697
;TYPE:WALL-INNER
G1 F1500 E25.7966
G1 F1200 X84.358 Y124.369 E25.82064
G1 X84.869 Y123.858 E25.84468
G1 X85.197 Y123.214 E25.86871
G1 X85.309 Y122.5 E25.89275
G1 X85.197 Y121.786 E25.91679
G1 X84.869 Y121.142 E25.94083
G1 X84.358 Y120.631 E25.96486
G1 X83.714 Y120.303 E25.9889
G1 X83 Y120.189 E26.01295
G1 X82.286 Y120.303 E26.037
G1 X81.642 Y120.631 E26.06104
G1 X81.131 Y121.142 E26.08507
G1 X80.803 Y121.786 E26.10911
G1 X80.689 Y122.5 E26.13316
G1 X80.803 Y123.214 E26.15721
G1 X81.131 Y123.858 E26.18124
G1 X81.642 Y124.369 E26.20528
G1 X82.286 Y124.697 E26.22932
G1 X83 Y124.809 E26.25336
G1 X83.714 Y124.697 E26.27739
G0 F6000 X83.589 Y124.312
;TYPE:WALL-OUTER
G1 F1200 X84.12 Y124.041 E26.29722
G1 X84.541 Y123.62 E26.31702
G1 X84.812 Y123.089 E26.33685
G1 X84.904 Y122.5 E26.35668
G1 X84.812 Y121.911 E26.37651
G1 X84.541 Y121.38 E26.39634
G1 X84.12 Y120.959 E26.41614
G1 X83.589 Y120.688 E26.43597
G1 X83 Y120.594 E26.45581
G1 X82.411 Y120.688 E26.47564
G1 X81.88 Y120.959 E26.49547
G1 X81.459 Y121.38 E26.51527
G1 X81.188 Y121.911 E26.5351
G1 X81.094 Y122.5 E26.55494
G1 X81.188 Y123.089 E26.57478
G1 X81.459 Y123.62 E26.59461
G1 X81.88 Y124.041 E26.61441
G1 X82.411 Y124.312 E26.63424
G1 X83 Y124.404 E26.65407
G1 X83.589 Y124.312 E26.67389
G0 F6000 X83.724 Y124.73
G1 F1500 E20.17389
G0 F6000 X84.737 Y123.762
G0 X85.043 Y123.163
G0 X85.146 Y122.5
G0 X85.043 Y121.837
G0 X84.737 Y121.238
G0 X84.353 Y120.854
G0 X83 Y119.996
G0 X83 Y121.47
G0 X83 Y116.917
G0 X88.849 Y116.849
G0 X88.849 Y103.15
G0 X83 Y103.082
G0 X83 Y98.23
G0 X83 Y99.702
G0 X83.714 Y99.397
;TYPE:WALL-INNER
G1 F1500 E26.67389
G1 F1200 X84.358 Y99.069 E26.69793
G1 X84.869 Y98.558 E26.72197
G1 X85.197 Y97.914 E26.746
G1 X85.309 Y97.2 E26.77004
G1 X85.197 Y96.486 E26.79408
G1 X84.869 Y95.842 E26.81812
G1 X84.358 Y95.331 E26.84215
G1 X83.714 Y95.003 E26.86619
G1 X83 Y94.889 E26.89024
G1 X82.286 Y95.003 E26.91429
G1 X81.642 Y95.331 E26.93833
G1 X81.131 Y95.842 E26.96236
G1 X80.803 Y96.486 E26.9864
G1 X80.689 Y97.2 E27.01045
G1 X80.803 Y97.914 E27.0345
G1 X81.131 Y98.558 E27.05854
G1 X81.642 Y99.069 E27.08257
G1 X82.286 Y99.397 E27.10661
G1 X83 Y99.509 E27.13065
G1 X83.714 Y99.397 E27.15469
G0 F6000 X83.589 Y99.012
;TYPE:WALL-OUTER
G1 F1200 X84.12 Y98.741 E27.17451
G1 X84.541 Y98.32 E27.19432
G1 X84.812 Y97.789 E27.21414
G1 X84.904 Y97.2 E27.23397
G1 X84.812 Y96.611 E27.2538
G1 X84.541 Y96.08 E27.27363
G1 X84.12 Y95.659 E27.29343
G1 X83.589 Y95.388 E27.31326
G1 X83 Y95.294 E27.3331
G1 X82.411 Y95.388 E27.35293
G1 X81.88 Y95.659 E27.37276
G1 X81.459 Y96.08 E27.39257
G1 X81.188 Y96.611 E27.41239
G1 X81.094 Y97.2 E27.43223
G1 X81.188 Y97.789 E27.45207
G1 X81.459 Y98.32 E27.4719
G1 X81.88 Y98.741 E27.4917
G1 X82.411 Y99.012 E27.51153
G1 X83 Y99.104 E27.53136
G1 X83.589 Y99.012 E27.55118
G0 F6000 X83.724 Y99.43
G1 F1500 E21.05118
G0 F6000 X85.025 Y98.672
G0 X83.833 Y97.806
G0 X134.967 Y96.806
G0 X134.095 Y97.439
G0 X134.332 Y97.708
G0 X135.086 Y98.397
;TYPE:WALL-INNER
G1 F1500 E27.55118
G1 F1200 X135.8 Y98.509 E27.57522
G1 X136.514 Y98.397 E27.59926
G1 X137.158 Y98.069 E27.6233
G1 X137.669 Y97.558 E27.64733
G1 X137.997 Y96.914 E27.67137
G1 X138.109 Y96.2 E27.69541
G1 X137.997 Y95.486 E27.71945
G1 X137.669 Y94.842 E27.74349
G1 X137.158 Y94.331 E27.76752
G1 X136.514 Y94.003 E27.79156
G1 X135.8 Y93.889 E27.81561
G1 X135.086 Y94.003 E27.83966
G1 X134.442 Y94.331 E27.86369
G1 X133.931 Y94.842 E27.88773
G1 X133.603 Y95.486 E27.91177
G1 X133.489 Y96.2 E27.93582
G1 X133.603 Y96.914 E27.95986
G1 X133.931 Y97.558 E27.9839
G1 X134.442 Y98.069 E28.00794
G1 X135.086 Y98.397 E28.03198
G0 F6000 X135.211 Y98.012
;TYPE:WALL-OUTER
G1 F1200 X135.8 Y98.104 E28.0518
G1 X136.389 Y98.012 E28.07163
G1 X136.92 Y97.741 E28.09146
G1 X137.341 Y97.32 E28.11126
G1 X137.612 Y96.789 E28.13109
G1 X137.704 Y96.2 E28.15092
G1 X137.612 Y95.611 E28.17075
G1 X137.341 Y95.08 E28.19057
G1 X136.92 Y94.659 E28.21038
G1 X136.389 Y94.388 E28.23021
G1 X135.8 Y94.294 E28.25004
G1 X135.211 Y94.388 E28.26988
G1 X134.68 Y94.659 E28.28971
G1 X134.259 Y95.08 E28.30951
G1 X133.988 Y95.611 E28.32934
G1 X133.894 Y96.2 E28.34918
G1 X133.988 Y96.789 E28.36902
G1 X134.259 Y97.32 E28.38884
G1 X134.68 Y97.741 E28.40865
G1 X135.211 Y98.012 E28.42848
G0 F6000 X135.076 Y98.43
G1 F1500 E21.92848
G0 F6000 X135.8 Y98.702
G0 X135.8 Y97.23
G0 X135.8 Y103.085
